src/svgs/transparency.svg

<svg xmlns="http://www.w3.org/2000/svg" viewBox="0 0 98 66"><path d="M28.257 1.077c-5.652.822-11.165 3.244-15.699 6.899-1.564 1.26-4.394 4.187-5.556 5.744C2.191 20.17-.13 28.429.66 36.284 2.2 51.589 13.948 63.597 29.232 65.489c1.781.22 5.746.22 7.522-.001 3.844-.478 7.311-1.515 10.735-3.211L49 61.529l1.511.748c4.672 2.315 9.249 3.383 14.496 3.383 3.856 0 6.668-.463 10.413-1.714 10.216-3.414 18.25-11.976 20.944-22.323 1.672-6.42 1.479-12.509-.591-18.739-1.549-4.659-3.909-8.534-7.407-12.16-2.647-2.745-5.023-4.546-8.209-6.225C75.298 1.938 70.652.814 64.96.82c-5.258.005-9.376.921-13.959 3.104L49 4.878l-2.001-.954c-3.143-1.497-6.054-2.374-9.514-2.868-2.063-.295-7.136-.283-9.228.021m8.497.891c3.533.437 7.094 1.495 10.085 2.995.995.499 1.856.983 1.913 1.075.194.315 1.034.195 1.148-.163.139-.439 2.462-1.598 4.858-2.424 3.331-1.149 6.463-1.654 10.249-1.654 7.047 0 13.261 2.065 18.946 6.296 8.444 6.284 13.203 16.775 12.407 27.35-.569 7.562-3.527 14.197-8.729 19.577-4.291 4.439-9.127 7.245-15.092 8.757-4.779 1.211-10.426 1.188-15.32-.063-3.17-.811-6.842-2.371-7.249-3.081-.284-.495-1.049-.656-1.203-.252-.114.296-3.285 1.81-5.209 2.485-3.368 1.183-5.892 1.647-9.585 1.761-9.114.283-17.241-3.024-23.604-9.607-4.626-4.785-7.421-10.419-8.495-17.127-.365-2.277-.371-6.968-.011-9.31.906-5.901 3.322-11.197 7.236-15.863C13.9 6.998 21.392 2.969 29.08 1.975c1.549-.201 6.078-.205 7.674-.007m8.753 5.434c-.412.33-.447.422-.28.734.235.439.471.444.98.02.354-.295.371-.366.177-.73-.264-.493-.29-.493-.877-.024m6.72.036c-.279.372-.274.388.242.792l.527.413.377-.355.377-.355-.374-.296c-.732-.58-.849-.6-1.149-.199m-9.978 2.66c-.436.455-.438.466-.126.748.241.219.391.247.629.119.588-.314.708-.583.436-.972-.322-.459-.407-.45-.939.105m13.208.07c-.246.35-.233.388.277.808.528.435.538.437.854.125.316-.312.315-.319-.154-.808-.565-.59-.643-.6-.977-.125m-16.075 2.994c-.428.544-.428.591.003.86.311.194.396.171.774-.207.342-.342.391-.481.247-.709-.279-.443-.647-.423-1.024.056m19.008.07c-.288.319-.286.341.097.776.217.246.407.471.421.501.015.03.215-.07.445-.22l.419-.275-.424-.555c-.494-.648-.562-.665-.958-.227m-21.313 3.302c-.403.661-.404.727-.011.937.483.258.582.214.87-.39.261-.547.258-.564-.133-.82-.388-.254-.41-.246-.726.273m23.869.103c-.373.287-.377.313-.118.813.287.556.432.61.923.347.312-.166.312-.178-.014-.816-.182-.356-.347-.646-.368-.644-.02.002-.211.137-.423.3M35.11 20.518c-.159.481-.153.617.028.732.441.279.731.142.944-.445.178-.494.177-.615-.008-.733-.459-.29-.768-.147-.964.446m27.647-.095c-.361.145-.364.166-.117.757.315.755.246.711.76.487.431-.187.433-.195.187-.801-.268-.661-.276-.665-.83-.443m-28.945 3.826c-.274.721-.205 1.022.255 1.11.333.064.451-.002.571-.318.194-.51.195-1.031.002-1.031-.082 0-.265-.044-.406-.098-.176-.068-.308.038-.422.337m30.135.248c-.191.309.103 1.31.384 1.307.546-.005.724-.261.608-.878-.09-.482-.182-.589-.502-.589-.215 0-.436.072-.49.16m-31.018 3.855c-.228.595-.105 1.04.317 1.146.511.128.501.139.641-.711.114-.687.11-.694-.372-.694-.293 0-.526.103-.586.259m32.037.181c-.298.077-.351.364-.183.99.073.273.219.367.569.367.502 0 .541-.101.369-.96-.1-.502-.185-.546-.755-.397m-32.463 4.46c0 .638.014.654.572.654.558 0 .572-.016.572-.654 0-.637-.014-.653-.572-.653-.558 0-.572.016-.572.653m32.504.409c0 .707.018.735.49.735s.49-.028.49-.735c0-.708-.018-.735-.49-.735s-.49.027-.49.735m-31.936 3.132c-.279.055-.32.167-.268.721.06.626.086.654.576.607.282-.028.494-.105.472-.173-.023-.067-.041-.38-.041-.694 0-.575-.04-.601-.739-.461m31.609 1.03c0 .56.057.664.416.754.508.128.494.143.625-.71l.106-.695h-.573c-.56 0-.574.016-.574.651m-30.625 3.075c-.513.099-.577.243-.397.895.153.554.208.599.609.502.243-.058.459-.119.48-.135.022-.016-.052-.321-.163-.677-.16-.514-.27-.635-.529-.585m29.824.948c-.129.468-.122.651.029.747.45.286.758.129.923-.471.193-.699.217-.645-.344-.786-.399-.1-.452-.056-.608.51m-28.803 3.116c-.348.091-.354.224-.046.962.221.528.271.559.613.381.204-.106.397-.215.428-.241.031-.026-.039-.31-.155-.631-.209-.577-.281-.618-.84-.471m27.433.826c-.235.585-.23.622.105.811.193.109.393.201.443.204.103.007.684-1.155.609-1.217-.104-.086-.766-.41-.836-.41-.041 0-.186.275-.321.612m-25.555 3.022c-.202.095-.367.237-.367.316 0 .115.317.695.598 1.094.025.035.232-.059.461-.209.431-.283.415-.451-.108-1.103-.171-.213-.294-.233-.584-.098m23.705.713c-.302.567-.302.58.013.811.41.303.524.257.923-.374l.328-.519-.478-.247c-.472-.244-.482-.241-.786.329m-21.432 2.85-.381.309.351.493c.402.564.66.616 1.024.208.234-.262.219-.329-.178-.802-.433-.515-.436-.516-.816-.208m19.101.501-.391.494.362.355.361.354.47-.555.469-.555-.384-.302c-.212-.167-.41-.299-.441-.294-.031.005-.231.232-.446.503M41.922 55.34c-.251.278-.234.33.286.834l.555.537.293-.447c.292-.445.291-.449-.189-.833-.58-.464-.605-.467-.945-.091m13.617.269c-.367.39-.369.415-.093.837l.285.435.504-.504c.494-.494.498-.511.203-.837-.383-.423-.441-.419-.899.069m-10.38 2.54c-.288.319-.288.337.016.575.714.559.901.607 1.138.293.316-.416.299-.477-.237-.859-.579-.413-.551-.412-.917-.009m7.315.034c-.615.433-.613.423-.242.906l.285.37.545-.455c.539-.45.541-.458.242-.823l-.302-.369-.528.371" fill-rule="evenodd"/></svg>

<svg xmlns="http://www.w3.org/2000/svg" viewBox="0 0 98 66"><path d="M28.257 1.077 C 22.605 1.899,17.092 4.321,12.558 7.976 C 10.994 9.236,8.164 12.163,7.002 13.720 C 2.191 20.170,-0.130 28.429,0.660 36.284 C 2.200 51.589,13.948 63.597,29.232 65.489 C 31.013 65.709,34.978 65.709,36.754 65.488 C 40.598 65.010,44.065 63.973,47.489 62.277 L 49.000 61.529 50.511 62.277 C 55.183 64.592,59.760 65.660,65.007 65.660 C 68.863 65.660,71.675 65.197,75.420 63.946 C 85.636 60.532,93.670 51.970,96.364 41.623 C 98.036 35.203,97.843 29.114,95.773 22.884 C 94.224 18.225,91.864 14.350,88.366 10.724 C 85.719 7.979,83.343 6.178,80.157 4.499 C 75.298 1.938,70.652 0.814,64.960 0.820 C 59.702 0.825,55.584 1.741,51.001 3.924 L 49.000 4.878 46.999 3.924 C 43.856 2.427,40.945 1.550,37.485 1.056 C 35.422 0.761,30.349 0.773,28.257 1.077 M36.754 1.968 C 40.287 2.405,43.848 3.463,46.839 4.963 C 47.834 5.462,48.695 5.946,48.752 6.038 C 48.946 6.353,49.786 6.233,49.900 5.875 C 50.039 5.436,52.362 4.277,54.758 3.451 C 58.089 2.302,61.221 1.797,65.007 1.797 C 72.054 1.797,78.268 3.862,83.953 8.093 C 92.397 14.377,97.156 24.868,96.360 35.443 C 95.791 43.005,92.833 49.640,87.631 55.020 C 83.340 59.459,78.504 62.265,72.539 63.777 C 67.760 64.988,62.113 64.965,57.219 63.714 C 54.049 62.903,50.377 61.343,49.970 60.633 C 49.686 60.138,48.921 59.977,48.767 60.381 C 48.653 60.677,45.482 62.191,43.558 62.866 C 40.190 64.049,37.666 64.513,33.973 64.627 C 24.859 64.910,16.732 61.603,10.369 55.020 C 5.743 50.235,2.948 44.601,1.874 37.893 C 1.509 35.616,1.503 30.925,1.863 28.583 C 2.769 22.682,5.185 17.386,9.099 12.720 C 13.900 6.998,21.392 2.969,29.080 1.975 C 30.629 1.774,35.158 1.770,36.754 1.968 M45.507 7.402 C 45.095 7.732,45.060 7.824,45.227 8.136 C 45.462 8.575,45.698 8.580,46.207 8.156 C 46.561 7.861,46.578 7.790,46.384 7.426 C 46.120 6.933,46.094 6.933,45.507 7.402 M52.227 7.438 C 51.948 7.810,51.953 7.826,52.469 8.230 L 52.996 8.643 53.373 8.288 L 53.750 7.933 53.376 7.637 C 52.644 7.057,52.527 7.037,52.227 7.438 M42.249 10.098 C 41.813 10.553,41.811 10.564,42.123 10.846 C 42.364 11.065,42.514 11.093,42.752 10.965 C 43.340 10.651,43.460 10.382,43.188 9.993 C 42.866 9.534,42.781 9.543,42.249 10.098 M55.457 10.168 C 55.211 10.518,55.224 10.556,55.734 10.976 C 56.262 11.411,56.272 11.413,56.588 11.101 C 56.904 10.789,56.903 10.782,56.434 10.293 C 55.869 9.703,55.791 9.693,55.457 10.168 M39.382 13.162 C 38.954 13.706,38.954 13.753,39.385 14.022 C 39.696 14.216,39.781 14.193,40.159 13.815 C 40.501 13.473,40.550 13.334,40.406 13.106 C 40.127 12.663,39.759 12.683,39.382 13.162 M58.390 13.232 C 58.102 13.551,58.104 13.573,58.487 14.008 C 58.704 14.254,58.894 14.479,58.908 14.509 C 58.923 14.539,59.123 14.439,59.353 14.289 L 59.772 14.014 59.348 13.459 C 58.854 12.811,58.786 12.794,58.390 13.232 M37.077 16.534 C 36.674 17.195,36.673 17.261,37.066 17.471 C 37.549 17.729,37.648 17.685,37.936 17.081 C 38.197 16.534,38.194 16.517,37.803 16.261 C 37.415 16.007,37.393 16.015,37.077 16.534 M60.946 16.637 C 60.573 16.924,60.569 16.950,60.828 17.450 C 61.115 18.006,61.260 18.060,61.751 17.797 C 62.063 17.631,62.063 17.619,61.737 16.981 C 61.555 16.625,61.390 16.335,61.369 16.337 C 61.349 16.339,61.158 16.474,60.946 16.637 M35.110 20.518 C 34.951 20.999,34.957 21.135,35.138 21.250 C 35.579 21.529,35.869 21.392,36.082 20.805 C 36.260 20.311,36.259 20.190,36.074 20.072 C 35.615 19.782,35.306 19.925,35.110 20.518 M62.757 20.423 C 62.396 20.568,62.393 20.589,62.640 21.180 C 62.955 21.935,62.886 21.891,63.400 21.667 C 63.831 21.480,63.833 21.472,63.587 20.866 C 63.319 20.205,63.311 20.201,62.757 20.423 M33.812 24.249 C 33.538 24.970,33.607 25.271,34.067 25.359 C 34.400 25.423,34.518 25.357,34.638 25.041 C 34.832 24.531,34.833 24.010,34.640 24.010 C 34.558 24.010,34.375 23.966,34.234 23.912 C 34.058 23.844,33.926 23.950,33.812 24.249 M63.947 24.497 C 63.756 24.806,64.050 25.807,64.331 25.804 C 64.877 25.799,65.055 25.543,64.939 24.926 C 64.849 24.444,64.757 24.337,64.437 24.337 C 64.222 24.337,64.001 24.409,63.947 24.497 M32.929 28.352 C 32.701 28.947,32.824 29.392,33.246 29.498 C 33.757 29.626,33.747 29.637,33.887 28.787 C 34.001 28.100,33.997 28.093,33.515 28.093 C 33.222 28.093,32.989 28.196,32.929 28.352 M64.966 28.533 C 64.668 28.610,64.615 28.897,64.783 29.523 C 64.856 29.796,65.002 29.890,65.352 29.890 C 65.854 29.890,65.893 29.789,65.721 28.930 C 65.621 28.428,65.536 28.384,64.966 28.533 M32.503 32.993 C 32.503 33.631,32.517 33.647,33.075 33.647 C 33.633 33.647,33.647 33.631,33.647 32.993 C 33.647 32.356,33.633 32.340,33.075 32.340 C 32.517 32.340,32.503 32.356,32.503 32.993 M65.007 33.402 C 65.007 34.109,65.025 34.137,65.497 34.137 C 65.969 34.137,65.987 34.109,65.987 33.402 C 65.987 32.694,65.969 32.667,65.497 32.667 C 65.025 32.667,65.007 32.694,65.007 33.402 M33.071 36.534 C 32.792 36.589,32.751 36.701,32.803 37.255 C 32.863 37.881,32.889 37.909,33.379 37.862 C 33.661 37.834,33.873 37.757,33.851 37.689 C 33.828 37.622,33.810 37.309,33.810 36.995 C 33.810 36.420,33.770 36.394,33.071 36.534 M64.680 37.564 C 64.680 38.124,64.737 38.228,65.096 38.318 C 65.604 38.446,65.590 38.461,65.721 37.608 L 65.827 36.913 65.254 36.913 C 64.694 36.913,64.680 36.929,64.680 37.564 M34.055 40.639 C 33.542 40.738,33.478 40.882,33.658 41.534 C 33.811 42.088,33.866 42.133,34.267 42.036 C 34.510 41.978,34.726 41.917,34.747 41.901 C 34.769 41.885,34.695 41.580,34.584 41.224 C 34.424 40.710,34.314 40.589,34.055 40.639 M63.879 41.587 C 63.750 42.055,63.757 42.238,63.908 42.334 C 64.358 42.620,64.666 42.463,64.831 41.863 C 65.024 41.164,65.048 41.218,64.487 41.077 C 64.088 40.977,64.035 41.021,63.879 41.587 M35.076 44.703 C 34.728 44.794,34.722 44.927,35.030 45.665 C 35.251 46.193,35.301 46.224,35.643 46.046 C 35.847 45.940,36.040 45.831,36.071 45.805 C 36.102 45.779,36.032 45.495,35.916 45.174 C 35.707 44.597,35.635 44.556,35.076 44.703 M62.509 45.529 C 62.274 46.114,62.279 46.151,62.614 46.340 C 62.807 46.449,63.007 46.541,63.057 46.544 C 63.160 46.551,63.741 45.389,63.666 45.327 C 63.562 45.241,62.900 44.917,62.830 44.917 C 62.789 44.917,62.644 45.192,62.509 45.529 M36.954 48.551 C 36.752 48.646,36.587 48.788,36.587 48.867 C 36.587 48.982,36.904 49.562,37.185 49.961 C 37.210 49.996,37.417 49.902,37.646 49.752 C 38.077 49.469,38.061 49.301,37.538 48.649 C 37.367 48.436,37.244 48.416,36.954 48.551 M60.659 49.264 C 60.357 49.831,60.357 49.844,60.672 50.075 C 61.082 50.378,61.196 50.332,61.595 49.701 L 61.923 49.182 61.445 48.935 C 60.973 48.691,60.963 48.694,60.659 49.264 M39.227 52.114 L 38.846 52.423 39.197 52.916 C 39.599 53.480,39.857 53.532,40.221 53.124 C 40.455 52.862,40.440 52.795,40.043 52.322 C 39.610 51.807,39.607 51.806,39.227 52.114 M58.328 52.615 L 57.937 53.109 58.299 53.464 L 58.660 53.818 59.130 53.263 L 59.599 52.708 59.215 52.406 C 59.003 52.239,58.805 52.107,58.774 52.112 C 58.743 52.117,58.543 52.344,58.328 52.615 M41.922 55.340 C 41.671 55.618,41.688 55.670,42.208 56.174 L 42.763 56.711 43.056 56.264 C 43.348 55.819,43.347 55.815,42.867 55.431 C 42.287 54.967,42.262 54.964,41.922 55.340 M55.539 55.609 C 55.172 55.999,55.170 56.024,55.446 56.446 L 55.731 56.881 56.235 56.377 C 56.729 55.883,56.733 55.866,56.438 55.540 C 56.055 55.117,55.997 55.121,55.539 55.609 M45.159 58.149 C 44.871 58.468,44.871 58.486,45.175 58.724 C 45.889 59.283,46.076 59.331,46.313 59.017 C 46.629 58.601,46.612 58.540,46.076 58.158 C 45.497 57.745,45.525 57.746,45.159 58.149 M52.474 58.183 C 51.859 58.616,51.861 58.606,52.232 59.089 L 52.517 59.459 53.062 59.004 C 53.601 58.554,53.603 58.546,53.304 58.181 L 53.002 57.812 52.474 58.183 " stroke="none" fill-rule="evenodd"></path></svg>
